en/_assets/wiki/svg/structure-icon.svg

<svg xmlns="http://www.w3.org/2000/svg" xmlns:xlink="http://www.w3.org/1999/xlink" width="16" height="14" class="yc-icon" fill="currentColor" stroke="none" aria-hidden="true"><svg viewBox="0 0 16 14" xmlns="http://www.w3.org/2000/svg"><path fill-rule="evenodd" clip-rule="evenodd" d="M6.5 1.5H14C14.2761 1.5 14.5 1.72386 14.5 2V12C14.5 12.2761 14.2761 12.5 14 12.5H6.5V1.5ZM5 1.5H2C1.72386 1.5 1.5 1.72386 1.5 2V12C1.5 12.2761 1.72386 12.5 2 12.5H5V1.5ZM0 2C0 0.89543 0.895431 0 2 0H14C15.1046 0 16 0.895431 16 2V12C16 13.1046 15.1046 14 14 14H2C0.895431 14 0 13.1046 0 12V2Z"></path></svg></svg>

<svg xmlns="http://www.w3.org/2000/svg" width="16" height="14" fill="currentColor" aria-hidden="true" class="yc-icon"><svg xmlns="http://www.w3.org/2000/svg" viewBox="0 0 16 14"><path fill-rule="evenodd" d="M6.5 1.5H14a.5.5 0 0 1 .5.5v10a.5.5 0 0 1-.5.5H6.5v-11ZM5 1.5H2a.5.5 0 0 0-.5.5v10a.5.5 0 0 0 .5.5h3v-11ZM0 2a2 2 0 0 1 2-2h12a2 2 0 0 1 2 2v10a2 2 0 0 1-2 2H2a2 2 0 0 1-2-2V2Z" clip-rule="evenodd"/></svg></svg>
